imgs/icons/instagram-icon.svg

<svg width="39" height="38" viewBox="0 0 39 38" fill="none" xmlns="http://www.w3.org/2000/svg">
<g clip-path="url(#clip0_83_206)">
<path d="M19.4995 14.417C18.5935 14.417 17.7079 14.6856 16.9546 15.189C16.2013 15.6923 15.6142 16.4077 15.2675 17.2448C14.9208 18.0818 14.8301 19.0028 15.0068 19.8914C15.1836 20.78 15.6198 21.5962 16.2605 22.2368C16.9011 22.8774 17.7173 23.3137 18.6059 23.4904C19.4944 23.6672 20.4155 23.5765 21.2525 23.2298C22.0895 22.8831 22.8049 22.2959 23.3083 21.5426C23.8116 20.7893 24.0803 19.9037 24.0803 18.9977C24.0788 17.7833 23.5957 16.619 22.7369 15.7603C21.8782 14.9016 20.714 14.4185 19.4995 14.417Z" fill="black"/>
<path d="M24.8886 7.3291H14.1106C12.4457 7.33102 10.8496 7.99325 9.67232 9.17049C8.49508 10.3477 7.83286 11.9439 7.83093 13.6087V24.3867C7.83286 26.0516 8.49508 27.6478 9.67232 28.825C10.8496 30.0022 12.4457 30.6645 14.1106 30.6664H24.8886C26.5535 30.6645 28.1496 30.0022 29.3268 28.825C30.5041 27.6478 31.1663 26.0516 31.1682 24.3867V13.6087C31.1663 11.9439 30.5041 10.3477 29.3268 9.17049C28.1496 7.99325 26.5535 7.33102 24.8886 7.3291ZM19.4996 25.9984C18.115 25.9984 16.7615 25.5879 15.6102 24.8186C14.4589 24.0494 13.5616 22.956 13.0318 21.6768C12.5019 20.3976 12.3633 18.99 12.6334 17.632C12.9035 16.274 13.5703 15.0266 14.5493 14.0475C15.5284 13.0684 16.7758 12.4017 18.1338 12.1316C19.4918 11.8614 20.8994 12.0001 22.1786 12.5299C23.4578 13.0598 24.5512 13.9571 25.3204 15.1084C26.0897 16.2596 26.5003 17.6131 26.5003 18.9977C26.4981 20.8538 25.7599 22.6332 24.4475 23.9456C23.135 25.2581 21.3556 25.9963 19.4996 25.9984ZM27.1923 13.058C26.8505 13.058 26.5163 12.9567 26.2321 12.7669C25.9478 12.577 25.7262 12.3072 25.5953 11.9914C25.4644 11.6757 25.43 11.3282 25.4965 10.9929C25.563 10.6576 25.7275 10.3496 25.969 10.1077C26.2105 9.86583 26.5183 9.70099 26.8535 9.63401C27.1887 9.56703 27.5362 9.60092 27.8522 9.73139C28.1681 9.86187 28.4383 10.0831 28.6285 10.3671C28.8188 10.651 28.9206 10.985 28.921 11.3268C28.9215 11.5541 28.8771 11.7793 28.7904 11.9894C28.7037 12.1995 28.5764 12.3905 28.4158 12.5514C28.2553 12.7122 28.0646 12.8399 27.8546 12.927C27.6446 13.014 27.4196 13.0589 27.1923 13.0589V13.058Z" fill="black"/>
<path d="M38.4629 8.88376C38.4606 8.19888 38.3979 7.51554 38.2755 6.84169C38.1189 6.01888 37.8984 5.21707 37.5044 4.4734C37.094 3.68987 36.5599 2.97769 35.9226 2.36431C34.96 1.42198 33.7709 0.743452 32.4699 0.394097C31.2724 0.0711117 30.0475 0.0032848 28.8193 0.00489973C28.8153 -0.000512601 28.8127 -0.00693461 28.8121 -0.0136719H10.1807C10.1807 -0.00721217 10.1807 -0.00075251 10.1807 0.00489973C9.48221 0.0178191 8.78215 0.0121669 8.08773 0.0985654C7.32622 0.179077 6.57653 0.34706 5.85348 0.599192C4.72895 1.01399 3.71401 1.68013 2.88605 2.54679C1.93697 3.51129 1.25353 4.70489 0.902116 6.01161C0.583976 7.2002 0.514534 8.4122 0.512919 9.63308L0.5 28.3396C0.522609 29.1834 0.529876 30.0352 0.67199 30.8718C0.822985 31.76 1.03858 32.6248 1.45038 33.4306C1.99809 34.5104 2.77855 35.4552 3.7355 36.197C4.4186 36.7415 5.19245 37.161 6.02143 37.4364C7.24231 37.8305 8.50196 37.9815 9.78017 37.9888C10.5779 37.9936 11.3741 38.0138 12.1719 38.0106C17.9646 37.9863 23.7582 38.0525 29.5509 37.975C30.3162 37.9582 31.0787 37.8772 31.8304 37.7328C33.2519 37.4824 34.5748 36.8384 35.6488 35.874C36.923 34.7371 37.783 33.3466 38.1714 31.6679C38.4257 30.5706 38.4887 29.4571 38.5 28.3404V28.1175C38.4992 28.0303 38.4661 9.13407 38.4629 8.88376ZM33.5874 24.387C33.5846 26.6933 32.6673 28.9044 31.0366 30.5352C29.4058 32.1661 27.1949 33.0837 24.8886 33.0866H14.1106C11.8042 33.0839 9.593 32.1664 7.96211 30.5355C6.33122 28.9046 5.41377 26.6935 5.41099 24.387V13.609C5.41377 11.3026 6.33122 9.09144 7.96211 7.46055C9.593 5.82966 11.8042 4.91221 14.1106 4.90943H24.8886C27.195 4.91221 29.4062 5.82966 31.0371 7.46055C32.668 9.09144 33.5854 11.3026 33.5882 13.609L33.5874 24.387Z" fill="black"/>
</g>
<defs>
<clipPath id="clip0_83_206">
<rect width="38" height="38" fill="white" transform="translate(0.5)"/>
</clipPath>
</defs>
</svg>

<svg xmlns="http://www.w3.org/2000/svg" width="39" height="38" fill="none"><g fill="#000" clip-path="url(#a)"><path d="M19.5 14.42a4.58 4.58 0 1 0 0 9.16 4.58 4.58 0 0 0 0-9.16Z"/><path d="M24.89 7.33H14.1a6.29 6.29 0 0 0-6.28 6.28v10.78a6.29 6.29 0 0 0 6.28 6.28H24.9a6.29 6.29 0 0 0 6.28-6.28V13.6a6.29 6.29 0 0 0-6.28-6.28ZM19.5 26a7 7 0 1 1 0-14 7 7 0 0 1 0 14Zm7.7-12.94a1.73 1.73 0 1 1 0-3.46 1.73 1.73 0 0 1 0 3.46Z"/><path d="M38.46 8.88c0-.68-.06-1.36-.18-2.04a8.31 8.31 0 0 0-.78-2.37A8.22 8.22 0 0 0 32.47.4a13.84 13.84 0 0 0-3.66-.4H10.18V0c-.7.02-1.4.01-2.1.1-.75.08-1.5.25-2.23.5A7.87 7.87 0 0 0 2.9 2.55 7.84 7.84 0 0 0 .9 6C.58 7.2.51 8.41.51 9.63L.5 28.34c.02.84.03 1.7.17 2.53.15.89.37 1.75.78 2.56a8.19 8.19 0 0 0 4.57 4c1.22.4 2.48.55 3.76.56l2.4.02c5.78-.02 11.58.04 17.37-.03.77-.02 1.53-.1 2.28-.25a7.72 7.72 0 0 0 3.82-1.86 7.92 7.92 0 0 0 2.52-4.2c.26-1.1.32-2.21.33-3.33v-.22l-.04-19.24Zm-4.87 15.5a8.71 8.71 0 0 1-8.7 8.7H14.1a8.71 8.71 0 0 1-8.7-8.7V13.62a8.71 8.71 0 0 1 8.7-8.7H24.9a8.71 8.71 0 0 1 8.7 8.7v10.78Z"/></g><defs><clipPath id="a"><path fill="#fff" d="M.5 0h38v38H.5z"/></clipPath></defs></svg>
